X: 19194
T: Isbal Foalsey
R: hornpipe
M: 4/4
K: Dmajor
A>A|d2 c>d B2 c>d|e>c A>A A2 A>G|F2 A>A B2 c>d|e>c A>A A3A|
B>A B>c d2 ef|A>B AG F2 D>F|Ad dB A2 FA|A>F DD D2||

